X: 08107
T: SUE'S HORNPIPE
C: Bob McQuillen 23 Dec 91
B: Bob's Note Book 8 #107
%R: hornpipe, reel
Z: 2021 John Chambers <jc:trillian.mit.edu>
M: C
L: 1/8
K: D
FE \
| DFAB A2dB | Adfe d2AF | GABG FAdA | B2AF EGFE |\
| DFAB A2dB | Adfe dBAF | GABd Aceg | f2d2 d2 :|
|: gf \
| e2ed cABc | d2dB AFAd | B2GB A2FA | GFED E2FE |\
| D2FA GFEF | GABc d2AG | FAdf gece | e2d2 d2 :|
%%begintext align
%% Sue Bartlett
%% lives over in Antrim, NH, and I first met her in Chris
%% Cappy's Tai Chi class here in Peterborough. When I saw
%% her later, having a wonderful time at the dances, that's
%% when I decided she needed a tune, so here it it.
%% I sure hope you like it, Sue!
%%endtext

%%sep 1 1 500

%%sep 1 1 500

